src/public/sprite.svg

<svg xmlns="http://www.w3.org/2000/svg" aria-hidden="true" style="position:absolute;width:0;height:0;overflow:hidden">
  <defs>
    <symbol id="logo-site" viewBox="0 0 32 32">
      <path
        d="M14.5.475c-.15.325-.25 4.2-.25 10.875v10.4h2V11.175c0-7.9-.075-10.65-.3-10.875-.45-.45-1.15-.35-1.45.175zM18.25 11.05v7.325h3.05c1.7 0 3.7.05 4.45.125l1.375.125-.025-1.25C27 13.6 23.225 7.275 19.4 4.55l-1.15-.825v7.325zM11.35 10.375C9.925 12.45 7.125 15.4 5.275 16.75c-1.075.8-1.5 1.275-1.45 1.625.05.475.25.5 4.25.575 3.25.05 4.225 0 4.3-.275.075-.175.1-2.45.075-5.05l-.075-4.75-1.025 1.5zM.775 24.1c-.225.275-.25.5-.025.875.275.525.375.525 15.1.525 14.45 0 14.825 0 15.275-.5.375-.4.375-.55.125-.875-.45-.55-30.025-.575-30.475-.025zM2.25 27.7c0 .1.425.9.95 1.775C4.7 32.05 4.5 32 13.55 32c8.275 0 9.45-.125 11.7-1.25 1.4-.7 3.75-2.6 3.75-3.025 0-.125-5.45-.225-13.375-.225-7.35 0-13.375.075-13.375.2z" />
    </symbol>
    <symbol id="youtube" viewBox="0 0 32 32">
      <path
        d="M24.24 6c-1.36-.08-4.16-.16-8.4-.16h-.56c-4.08 0-6.8.08-8.16.24-1.84.16-3.12.64-3.84 1.28-.64.56-1.12 1.6-1.28 2.96-.08.88-.16 2.72-.16 5.52v.4c0 2.64.08 4.48.24 5.36.24 1.28.64 2.24 1.44 2.8.8.64 2.16 1.04 4.08 1.2 1.36.08 4.16.16 8.4.16h.56c4.08 0 6.8-.08 8.16-.24 1.84-.16 3.12-.64 3.84-1.28.64-.56 1.12-1.6 1.28-2.96.08-.88.16-2.72.16-5.52v-.4c0-2.64-.08-4.48-.24-5.36-.24-1.28-.64-2.24-1.44-2.8-.8-.64-2.16-1.04-4.08-1.2zm-3.12 9.84-8.8 5.28V10.56l8.8 5.28z" />
    </symbol>
    <symbol id="instagram" viewBox="0 0 32 32">
      <path
        d="M23.982 6.229a1.794 1.794 0 0 0-1.758 2.141 1.785 1.785 0 0 0 1.408 1.408 1.788 1.788 0 0 0 1.839-.762 1.792 1.792 0 0 0-1.49-2.788zm6.869 3.614a11.33 11.33 0 0 0-.687-3.629 7.38 7.38 0 0 0-1.732-2.643 7.01 7.01 0 0 0-2.643-1.717 10.905 10.905 0 0 0-3.629-.702c-1.583-.09-2.091-.09-6.152-.09s-4.57 0-6.153.09a10.905 10.905 0 0 0-3.629.702 7.135 7.135 0 0 0-2.643 1.717 7.01 7.01 0 0 0-1.717 2.643 10.905 10.905 0 0 0-.702 3.629c-.09 1.583-.09 2.091-.09 6.153s0 4.57.09 6.153c.026 1.241.263 2.468.702 3.629.365 1 .952 1.904 1.717 2.643a7.135 7.135 0 0 0 2.643 1.717c1.161.439 2.388.676 3.629.702 1.583.09 2.091.09 6.153.09s4.57 0 6.152-.09a10.905 10.905 0 0 0 3.629-.702c1-.365 1.904-.952 2.643-1.717a7.23 7.23 0 0 0 1.732-2.643 11.33 11.33 0 0 0 .687-3.629c0-1.583.09-2.091.09-6.153s0-4.57-.09-6.153zm-2.688 12.126a8.365 8.365 0 0 1-.508 2.778 4.556 4.556 0 0 1-1.12 1.717 4.763 4.763 0 0 1-1.717 1.12c-.89.325-1.83.497-2.778.508-1.493.075-2.046.09-5.973.09s-4.48 0-5.973-.09a8.566 8.566 0 0 1-2.897-.448 4.885 4.885 0 0 1-1.643-1.12 4.473 4.473 0 0 1-1.105-1.717 8.25 8.25 0 0 1-.597-2.837c0-1.493-.09-2.046-.09-5.973s0-4.48.09-5.973a8.281 8.281 0 0 1 .523-2.837 4.482 4.482 0 0 1 1.18-1.643 4.7 4.7 0 0 1 1.643-1.195 8.58 8.58 0 0 1 2.837-.508c1.493 0 2.046-.09 5.973-.09s4.48 0 5.973.09a8.39 8.39 0 0 1 2.778.508 4.56 4.56 0 0 1 1.777 1.195c.489.459.872 1.02 1.12 1.643a8.37 8.37 0 0 1 .508 2.837c.075 1.493.09 2.046.09 5.973s-.015 4.48-.09 5.973zM16.008 8.335a7.665 7.665 0 0 0-7.067 4.739 7.66 7.66 0 0 0 10.017 9.997 7.657 7.657 0 0 0 4.726-7.077 7.645 7.645 0 0 0-7.675-7.66zm0 12.634a4.976 4.976 0 0 1-4.595-3.07 4.967 4.967 0 0 1 1.078-5.419 4.974 4.974 0 0 1 8.11 5.42 4.965 4.965 0 0 1-2.691 2.691 4.97 4.97 0 0 1-1.903.378z" />
    </symbol>
    <symbol id="facebook" viewBox="0 0 18 32">
      <path
        d="M14.851 5.602h2.924V.655a40.727 40.727 0 0 0-4.262-.218c-4.231 0-7.124 2.582-7.124 7.311v4.076H1.613v5.538h4.776v14.187h5.724V17.362h4.76l.716-5.538h-5.476V8.293c0-1.633.436-2.691 2.738-2.691z" />
    </symbol>
    <symbol id="slider" viewBox="0 0 108 32">
      <path fill="#88b3b9"
        d="M21.895 14.316c0 6.046-4.901 10.947-10.947 10.947S.001 20.362.001 14.316c0-6.046 4.901-10.947 10.947-10.947S21.895 8.27 21.895 14.316z"
        style="fill:var(--color1, #88b3b9)" />
      <path fill="none" stroke="#93abae" stroke-width="1.684"
        d="M21.053 14.316c0 5.581-4.524 10.105-10.105 10.105S.843 19.897.843 14.316 5.367 4.211 10.948 4.211s10.105 4.524 10.105 10.105z"
        style="stroke:var(--color2, #93abae)" />
      <path fill="#1f212d"
        d="M60.632 14.316c0 6.046-4.901 10.947-10.947 10.947s-10.947-4.901-10.947-10.947c0-6.046 4.901-10.947 10.947-10.947S60.632 8.27 60.632 14.316zm38.736 0c0 6.046-4.901 10.947-10.947 10.947s-10.947-4.901-10.947-10.947c0-6.046 4.901-10.947 10.947-10.947S99.368 8.27 99.368 14.316z"
        style="fill:var(--color3, #1f212d)" />
    </symbol>
    <symbol id="close-icon" viewBox="0 0 32 32">
      <path stroke-linecap="round" stroke-linejoin="round" stroke-width="1.733" d="M24 8 8 24M8 8l16 16" />
    </symbol>
    <symbol id="right-arrow" viewBox="0 0 72 32">
      <path d="M50 0l22 16-22 16v-13.229h-50v-5.543h50v-13.229z"></path>
    </symbol>
    <symbol id="left-arrow" viewBox="0 0 72 32">
      <path d="M22 0l-22 16 22 16v-13.229h50v-5.543h-50v-13.229z"></path>
    </symbol>
    <symbol id="arrow-up" viewBox="0 0 17 32">
      <path fill="#f6f5ef" d="M0 9.778 8.533 0l8.533 9.778h-7.055V32H7.055V9.778H0z"
        style="fill:var(--color1, #f6f5ef)" />
    </symbol>
    <symbol id="mobile-menu" viewBox="0 0 32 32">
      <path
        d="M2.667 7.993c0-.733.595-1.327 1.327-1.327h10.68a1.326 1.326 0 0 1 0 2.654H3.994a1.326 1.326 0 0 1-1.327-1.327zm0 8.007c0-.733.595-1.327 1.327-1.327h24.013a1.326 1.326 0 0 1 0 2.654H3.994A1.326 1.326 0 0 1 2.667 16zm1.326 6.68a1.326 1.326 0 0 0 0 2.654h16.013a1.326 1.326 0 0 0 0-2.654H3.993z" />
    </symbol>
  </defs>
</svg>

<svg xmlns="http://www.w3.org/2000/svg" aria-hidden="true" style="position:absolute;width:0;height:0;overflow:hidden">
  <defs>
    <symbol id="logo-site" viewBox="0 0 32 32">
      <path
        d="M14.5.475c-.15.325-.25 4.2-.25 10.875v10.4h2V11.175c0-7.9-.075-10.65-.3-10.875-.45-.45-1.15-.35-1.45.175zM18.25 11.05v7.325h3.05c1.7 0 3.7.05 4.45.125l1.375.125-.025-1.25C27 13.6 23.225 7.275 19.4 4.55l-1.15-.825v7.325zM11.35 10.375C9.925 12.45 7.125 15.4 5.275 16.75c-1.075.8-1.5 1.275-1.45 1.625.05.475.25.5 4.25.575 3.25.05 4.225 0 4.3-.275.075-.175.1-2.45.075-5.05l-.075-4.75-1.025 1.5zM.775 24.1c-.225.275-.25.5-.025.875.275.525.375.525 15.1.525 14.45 0 14.825 0 15.275-.5.375-.4.375-.55.125-.875-.45-.55-30.025-.575-30.475-.025zM2.25 27.7c0 .1.425.9.95 1.775C4.7 32.05 4.5 32 13.55 32c8.275 0 9.45-.125 11.7-1.25 1.4-.7 3.75-2.6 3.75-3.025 0-.125-5.45-.225-13.375-.225-7.35 0-13.375.075-13.375.2z" />
    </symbol>
    <symbol id="youtube" viewBox="0 0 32 32">
      <path
        d="M24.24 6c-1.36-.08-4.16-.16-8.4-.16h-.56c-4.08 0-6.8.08-8.16.24-1.84.16-3.12.64-3.84 1.28-.64.56-1.12 1.6-1.28 2.96-.08.88-.16 2.72-.16 5.52v.4c0 2.64.08 4.48.24 5.36.24 1.28.64 2.24 1.44 2.8.8.64 2.16 1.04 4.08 1.2 1.36.08 4.16.16 8.4.16h.56c4.08 0 6.8-.08 8.16-.24 1.84-.16 3.12-.64 3.84-1.28.64-.56 1.12-1.6 1.28-2.96.08-.88.16-2.72.16-5.52v-.4c0-2.64-.08-4.48-.24-5.36-.24-1.28-.64-2.24-1.44-2.8-.8-.64-2.16-1.04-4.08-1.2zm-3.12 9.84-8.8 5.28V10.56l8.8 5.28z" />
    </symbol>
    <symbol id="instagram" viewBox="0 0 32 32">
      <path
        d="M23.982 6.229a1.794 1.794 0 0 0-1.758 2.141 1.785 1.785 0 0 0 1.408 1.408 1.788 1.788 0 0 0 1.839-.762 1.792 1.792 0 0 0-1.49-2.788zm6.869 3.614a11.33 11.33 0 0 0-.687-3.629 7.38 7.38 0 0 0-1.732-2.643 7.01 7.01 0 0 0-2.643-1.717 10.905 10.905 0 0 0-3.629-.702c-1.583-.09-2.091-.09-6.152-.09s-4.57 0-6.153.09a10.905 10.905 0 0 0-3.629.702 7.135 7.135 0 0 0-2.643 1.717 7.01 7.01 0 0 0-1.717 2.643 10.905 10.905 0 0 0-.702 3.629c-.09 1.583-.09 2.091-.09 6.153s0 4.57.09 6.153c.026 1.241.263 2.468.702 3.629.365 1 .952 1.904 1.717 2.643a7.135 7.135 0 0 0 2.643 1.717c1.161.439 2.388.676 3.629.702 1.583.09 2.091.09 6.153.09s4.57 0 6.152-.09a10.905 10.905 0 0 0 3.629-.702c1-.365 1.904-.952 2.643-1.717a7.23 7.23 0 0 0 1.732-2.643 11.33 11.33 0 0 0 .687-3.629c0-1.583.09-2.091.09-6.153s0-4.57-.09-6.153zm-2.688 12.126a8.365 8.365 0 0 1-.508 2.778 4.556 4.556 0 0 1-1.12 1.717 4.763 4.763 0 0 1-1.717 1.12c-.89.325-1.83.497-2.778.508-1.493.075-2.046.09-5.973.09s-4.48 0-5.973-.09a8.566 8.566 0 0 1-2.897-.448 4.885 4.885 0 0 1-1.643-1.12 4.473 4.473 0 0 1-1.105-1.717 8.25 8.25 0 0 1-.597-2.837c0-1.493-.09-2.046-.09-5.973s0-4.48.09-5.973a8.281 8.281 0 0 1 .523-2.837 4.482 4.482 0 0 1 1.18-1.643 4.7 4.7 0 0 1 1.643-1.195 8.58 8.58 0 0 1 2.837-.508c1.493 0 2.046-.09 5.973-.09s4.48 0 5.973.09a8.39 8.39 0 0 1 2.778.508 4.56 4.56 0 0 1 1.777 1.195c.489.459.872 1.02 1.12 1.643a8.37 8.37 0 0 1 .508 2.837c.075 1.493.09 2.046.09 5.973s-.015 4.48-.09 5.973zM16.008 8.335a7.665 7.665 0 0 0-7.067 4.739 7.66 7.66 0 0 0 10.017 9.997 7.657 7.657 0 0 0 4.726-7.077 7.645 7.645 0 0 0-7.675-7.66zm0 12.634a4.976 4.976 0 0 1-4.595-3.07 4.967 4.967 0 0 1 1.078-5.419 4.974 4.974 0 0 1 8.11 5.42 4.965 4.965 0 0 1-2.691 2.691 4.97 4.97 0 0 1-1.903.378z" />
    </symbol>
    <symbol id="facebook" viewBox="0 0 18 32">
      <path
        d="M14.851 5.602h2.924V.655a40.727 40.727 0 0 0-4.262-.218c-4.231 0-7.124 2.582-7.124 7.311v4.076H1.613v5.538h4.776v14.187h5.724V17.362h4.76l.716-5.538h-5.476V8.293c0-1.633.436-2.691 2.738-2.691z" />
    </symbol>
    <symbol id="slider" viewBox="0 0 108 32">
      <path fill="#88b3b9"
        d="M21.895 14.316c0 6.046-4.901 10.947-10.947 10.947S.001 20.362.001 14.316c0-6.046 4.901-10.947 10.947-10.947S21.895 8.27 21.895 14.316z"
        style="fill:var(--color1, #88b3b9)" />
      <path fill="none" stroke="#93abae" stroke-width="1.684"
        d="M21.053 14.316c0 5.581-4.524 10.105-10.105 10.105S.843 19.897.843 14.316 5.367 4.211 10.948 4.211s10.105 4.524 10.105 10.105z"
        style="stroke:var(--color2, #93abae)" />
      <path fill="#1f212d"
        d="M60.632 14.316c0 6.046-4.901 10.947-10.947 10.947s-10.947-4.901-10.947-10.947c0-6.046 4.901-10.947 10.947-10.947S60.632 8.27 60.632 14.316zm38.736 0c0 6.046-4.901 10.947-10.947 10.947s-10.947-4.901-10.947-10.947c0-6.046 4.901-10.947 10.947-10.947S99.368 8.27 99.368 14.316z"
        style="fill:var(--color3, #1f212d)" />
    </symbol>
    <symbol id="close-icon" viewBox="0 0 32 32">
      <path stroke-linecap="round" stroke-linejoin="round" stroke-width="1.733" d="M24 8 8 24M8 8l16 16" />
    </symbol>
    <symbol id="right-arrow" viewBox="0 0 72 32">
      <path d="m50 0 22 16-22 16V18.771H0v-5.543h50V-.001z" />
    </symbol>
    <symbol id="left-arrow" viewBox="0 0 72 32">
      <path d="M22 0 0 16l22 16V18.771h50v-5.543H22V-.001z" />
    </symbol>
    <symbol id="arrow-up" viewBox="0 0 17 32">
      <path fill="#f6f5ef" d="M0 9.778 8.533 0l8.533 9.778h-7.055V32H7.055V9.778H0z"
        style="fill:var(--color1, #f6f5ef)" />
    </symbol>
    <symbol id="close-icon" width="24" height="27" viewBox="0 0 24 27" fill="none">
      <g filter="url(#filter0_d_92_2177)">
        <path d="M18 6L6 18" stroke="#F6F5EF" stroke-width="1.3" stroke-linecap="round" stroke-linejoin="round" />
        <path d="M6 6L18 18" stroke="#F6F5EF" stroke-width="1.3" stroke-linecap="round" stroke-linejoin="round" />
      </g>
      <defs>
        <filter id="filter0_d_92_2177" x="-4" y="0" width="32" height="32" filterUnits="userSpaceOnUse"
          color-interpolation-filters="sRGB">
          <feFlood flood-opacity="0" result="BackgroundImageFix" />
          <feColorMatrix in="SourceAlpha" type="matrix" values="0 0 0 0 0 0 0 0 0 0 0 0 0 0 0 0 0 0 127 0"
            result="hardAlpha" />
          <feOffset dy="4" />
          <feGaussianBlur stdDeviation="2" />
          <feComposite in2="hardAlpha" operator="out" />
          <feColorMatrix type="matrix" values="0 0 0 0 0 0 0 0 0 0 0 0 0 0 0 0 0 0 0.25 0" />
          <feBlend mode="normal" in2="BackgroundImageFix" result="effect1_dropShadow_92_2177" />
          <feBlend mode="normal" in="SourceGraphic" in2="effect1_dropShadow_92_2177" result="shape" />
        </filter>
      </defs>
    </symbol>
    <symbol id="mobile-menu" viewBox="0 0 32 32">
      <path fill="#f6f5ef" style="fill: var(--color1, #f6f5ef)"
        d="M2.667 7.993c0-0.733 0.595-1.327 1.327-1.327h10.68c0.352 0 0.689 0.14 0.938 0.389s0.389 0.586 0.389 0.938c0 0.352-0.14 0.689-0.389 0.938s-0.586 0.389-0.938 0.389h-10.68c-0.352 0-0.689-0.14-0.938-0.389s-0.389-0.586-0.389-0.938zM2.667 16c0-0.733 0.595-1.327 1.327-1.327h24.013c0.352 0 0.689 0.14 0.938 0.389s0.389 0.586 0.389 0.938c0 0.352-0.14 0.689-0.389 0.938s-0.586 0.389-0.938 0.389h-24.013c-0.352 0-0.689-0.14-0.938-0.389s-0.389-0.586-0.389-0.938zM3.993 22.68c-0.352 0-0.689 0.14-0.938 0.389s-0.389 0.586-0.389 0.938c0 0.352 0.14 0.689 0.389 0.938s0.586 0.389 0.938 0.389h16.013c0.352 0 0.689-0.14 0.938-0.389s0.389-0.586 0.389-0.938c0-0.352-0.14-0.689-0.389-0.938s-0.586-0.389-0.938-0.389h-16.013z">
      </path>
    </symbol>
  </defs>
</svg>
